contributed-vectors/szkolny.svg

<?xml version="1.0" encoding="UTF-8" standalone="no"?>
<svg
   width="100%"
   height="100%"
   viewBox="0 0 192 192"
   version="1.1"
   xml:space="preserve"
   style="fill-rule:evenodd;clip-rule:evenodd;stroke-linejoin:round;stroke-miterlimit:2;"
   id="svg35"
   sodipodi:docname="szkolny.svg"
   inkscape:export-filename="szkolny.png"
   inkscape:export-xdpi="96"
   inkscape:export-ydpi="96"
   inkscape:version="1.2 (dc2aedaf03, 2022-05-15)"
   xmlns:inkscape="http://www.inkscape.org/namespaces/inkscape"
   xmlns:sodipodi="http://sodipodi.sourceforge.net/DTD/sodipodi-0.dtd"
   xmlns="http://www.w3.org/2000/svg"
   xmlns:svg="http://www.w3.org/2000/svg"
   xmlns:serif="http://www.serif.com/"><defs
   id="defs39"><style
     id="style330">
      .cls-1 {
        fill: none;
      }

      .cls-158, .cls-159, .cls-160, .cls-2, .cls-5, .cls-6, .cls-8 {
        isolation: isolate;
      }

      .cls-3 {
        clip-path: url(#clip-path);
      }

      .cls-107, .cls-109, .cls-111, .cls-4 {
        fill: #fff;
      }

      .cls-100, .cls-102, .cls-104, .cls-106, .cls-108, .cls-11, .cls-110, .cls-112, .cls-114, .cls-116, .cls-118, .cls-120, .cls-122, .cls-124, .cls-126, .cls-128, .cls-13, .cls-130, .cls-132, .cls-134, .cls-136, .cls-138, .cls-140, .cls-142, .cls-144, .cls-146, .cls-148, .cls-15, .cls-150, .cls-152, .cls-154, .cls-156, .cls-17, .cls-19, .cls-21, .cls-23, .cls-26, .cls-28, .cls-31, .cls-33, .cls-34, .cls-36, .cls-38, .cls-4, .cls-40, .cls-42, .cls-44, .cls-46, .cls-48, .cls-50, .cls-52, .cls-54, .cls-56, .cls-58, .cls-60, .cls-62, .cls-64, .cls-66, .cls-68, .cls-70, .cls-72, .cls-74, .cls-76, .cls-78, .cls-80, .cls-82, .cls-84, .cls-86, .cls-88, .cls-9, .cls-90, .cls-92, .cls-94, .cls-96, .cls-98 {
        fill-rule: evenodd;
      }

      .cls-5 {
        font-size: 14px;
      }

      .cls-5, .cls-6 {
        fill: #444;
        font-family: Arial-ItalicMT, Arial;
        font-style: italic;
      }

      .cls-6 {
        font-size: 13px;
      }

      .cls-7 {
        letter-spacing: -0.02em;
      }

      .cls-8 {
        font-size: 16px;
        font-family: Arial-BoldMT, Arial;
      }

      .cls-158, .cls-159, .cls-160, .cls-8 {
        font-weight: 700;
      }

      .cls-100, .cls-102, .cls-104, .cls-106, .cls-108, .cls-109, .cls-11, .cls-110, .cls-112, .cls-114, .cls-116, .cls-118, .cls-120, .cls-122, .cls-124, .cls-126, .cls-127, .cls-128, .cls-13, .cls-130, .cls-131, .cls-132, .cls-134, .cls-135, .cls-136, .cls-138, .cls-139, .cls-140, .cls-142, .cls-143, .cls-144, .cls-146, .cls-147, .cls-148, .cls-149, .cls-15, .cls-150, .cls-152, .cls-153, .cls-154, .cls-156, .cls-17, .cls-19, .cls-21, .cls-23, .cls-26, .cls-28, .cls-31, .cls-33, .cls-34, .cls-36, .cls-38, .cls-40, .cls-42, .cls-44, .cls-46, .cls-48, .cls-50, .cls-52, .cls-54, .cls-56, .cls-58, .cls-60, .cls-62, .cls-64, .cls-66, .cls-68, .cls-70, .cls-72, .cls-74, .cls-76, .cls-78, .cls-80, .cls-82, .cls-84, .cls-86, .cls-88, .cls-9, .cls-90, .cls-92, .cls-94, .cls-96, .cls-98 {
        fill-opacity: 0.5;
      }

      .cls-9 {
        fill: url(#Transparent_44_);
      }

      .cls-10 {
        fill: url(#Unnamed_Pattern_79);
      }

      .cls-11 {
        fill: url(#Transparent_77_);
      }

      .cls-12 {
        fill: #ececec;
      }

      .cls-13 {
        fill: url(#Transparent_78_);
      }

      .cls-115, .cls-117, .cls-119, .cls-14 {
        fill: #d8d8d8;
      }

      .cls-15 {
        fill: url(#Transparent_79_);
      }

      .cls-16 {
        fill: #d2d2d2;
      }

      .cls-17 {
        fill: url(#Transparent_80_);
      }

      .cls-18 {
        fill: #ccc;
      }

      .cls-19 {
        fill: url(#Transparent_90_);
      }

      .cls-121, .cls-20 {
        fill: #b1b5bd;
      }

      .cls-21 {
        fill: url(#Transparent_96_);
      }

      .cls-22 {
        fill: #a0a5af;
      }

      .cls-23 {
        fill: url(#Transparent_98_);
      }

      .cls-24 {
        fill: #979797;
      }

      .cls-25 {
        letter-spacing: -0.07em;
      }

      .cls-26 {
        fill: url(#Transparent_100_);
      }

      .cls-27 {
        fill: #83868c;
      }

      .cls-28 {
        fill: url(#Transparent_157_);
      }

      .cls-29 {
        fill: #56595b;
      }

      .cls-30 {
        letter-spacing: -0.04em;
      }

      .cls-31 {
        fill: url(#Transparent_158_);
      }

      .cls-158, .cls-159, .cls-160, .cls-32 {
        fill: #4a4a4a;
      }

      .cls-33 {
        fill: url(#Transparent_159_);
      }

      .cls-34 {
        fill: url(#Transparent_160_);
      }

      .cls-35 {
        fill: #fcecdc;
      }

      .cls-36 {
        fill: url(#Transparent_161_);
      }

      .cls-37 {
        fill: #f8c18c;
      }

      .cls-38 {
        fill: url(#Transparent_162_);
      }

      .cls-39 {
        fill: #ffd6d4;
      }

      .cls-40 {
        fill: url(#Transparent_163_);
      }

      .cls-139, .cls-141, .cls-41 {
        fill: #ff837d;
      }

      .cls-42 {
        fill: url(#Transparent_164_);
      }

      .cls-43 {
        fill: #ba6561;
      }

      .cls-44 {
        fill: url(#Transparent_165_);
      }

      .cls-45 {
        fill: #e0f4e0;
      }

      .cls-46 {
        fill: url(#Transparent_166_);
      }

      .cls-135, .cls-137, .cls-47 {
        fill: #98dc9a;
      }

      .cls-48 {
        fill: url(#Transparent_167_);
      }

      .cls-49 {
        fill: #71a372;
      }

      .cls-50 {
        fill: url(#Transparent_168_);
      }

      .cls-51 {
        fill: #d3b69a;
      }

      .cls-52 {
        fill: url(#Transparent_169_);
      }

      .cls-53 {
        fill: #8e6f60;
      }

      .cls-54 {
        fill: url(#Transparent_170_);
      }

      .cls-127, .cls-129, .cls-55 {
        fill: #9abeff;
      }

      .cls-56 {
        fill: url(#Transparent_171_);
      }

      .cls-57 {
        fill: #728dbe;
      }

      .cls-58 {
        fill: url(#Transparent_172_);
      }

      .cls-59 {
        fill: #fdf5d9;
      }

      .cls-60 {
        fill: url(#Transparent_173_);
      }

      .cls-131, .cls-133, .cls-61 {
        fill: #f9de81;
      }

      .cls-62 {
        fill: url(#Transparent_174_);
      }

      .cls-63 {
        fill: #c39a54;
      }

      .cls-64 {
        fill: url(#Transparent_175_);
      }

      .cls-153, .cls-155, .cls-65 {
        fill: #bd9aff;
      }

      .cls-66 {
        fill: url(#Transparent_176_);
      }

      .cls-67 {
        fill: #8c72bd;
      }

      .cls-68 {
        fill: url(#Transparent_177_);
      }

      .cls-69 {
        fill: #96dfd3;
      }

      .cls-70 {
        fill: url(#Transparent_178_);
      }

      .cls-71 {
        fill: #73ada4;
      }

      .cls-72 {
        fill: url(#Transparent_179_);
      }

      .cls-157, .cls-73 {
        fill: #ababff;
      }

      .cls-74 {
        fill: url(#Transparent_180_);
      }

      .cls-75 {
        fill: #54688c;
      }

      .cls-76 {
        fill: url(#Transparent_181_);
      }

      .cls-77 {
        fill: #ffb0ac;
      }

      .cls-78 {
        fill: url(#Transparent_182_);
      }

      .cls-79 {
        fill: #f58f8a;
      }

      .cls-80 {
        fill: url(#Transparent_183_);
      }

      .cls-81 {
        fill: #f4806d;
      }

      .cls-82 {
        fill: url(#Transparent_184_);
      }

      .cls-83 {
        fill: #e85e5c;
      }

      .cls-84 {
        fill: url(#Transparent_185_);
      }

      .cls-85 {
        fill: #dc505e;
      }

      .cls-86 {
        fill: url(#Transparent_186_);
      }

      .cls-87 {
        fill: #b02a3c;
      }

      .cls-88 {
        fill: url(#Transparent_187_);
      }

      .cls-89 {
        fill: #7a1b1c;
      }

      .cls-90 {
        fill: url(#Transparent_188_);
      }

      .cls-91 {
        fill: #511119;
      }

      .cls-92 {
        fill: url(#Transparent_189_);
      }

      .cls-93 {
        fill: #f1e9e0;
      }

      .cls-94 {
        fill: url(#Transparent_190_);
      }

      .cls-95 {
        fill: #d7d0b8;
      }

      .cls-96 {
        fill: url(#Transparent_191_);
      }

      .cls-97 {
        fill: #e2c9b0;
      }

      .cls-98 {
        fill: url(#Transparent_192_);
      }

      .cls-99 {
        fill: #d4b79a;
      }

      .cls-100 {
        fill: url(#Transparent_193_);
      }

      .cls-101 {
        fill: #bf9e73;
      }

      .cls-102 {
        fill: url(#Transparent_194_);
      }

      .cls-103 {
        fill: #d4c6b8;
      }

      .cls-104 {
        fill: url(#Transparent_195_);
      }

      .cls-105 {
        fill: #d6c8ba;
      }

      .cls-106 {
        fill: url(#Transparent_196_);
      }

      .cls-107 {
        fill-opacity: 0.7;
      }

      .cls-108 {
        fill: url(#Transparent_197_);
      }

      .cls-110 {
        fill: url(#Transparent_198_);
      }

      .cls-111, .cls-113, .cls-121, .cls-125 {
        fill-opacity: 0.25;
      }

      .cls-112 {
        fill: url(#Transparent_199_);
      }

      .cls-113 {
        fill: #f4f2f2;
      }

      .cls-114 {
        fill: url(#Transparent_200_);
      }

      .cls-115 {
        fill-opacity: 0.3;
      }

      .cls-116 {
        fill: url(#Transparent_201_);
      }

      .cls-117 {
        fill-opacity: 0.1;
      }

      .cls-118 {
        fill: url(#Transparent_202_);
      }

      .cls-119 {
        fill-opacity: 0.2;
      }

      .cls-120 {
        fill: url(#Transparent_203_);
      }

      .cls-122 {
        fill: url(#Transparent_204_);
      }

      .cls-123 {
        fill-opacity: 0.15;
      }

      .cls-124 {
        fill: url(#Transparent_205_);
      }

      .cls-126 {
        fill: url(#Transparent_206_);
      }

      .cls-128 {
        fill: url(#Transparent_207_);
      }

      .cls-129, .cls-133, .cls-137, .cls-141, .cls-145, .cls-151, .cls-155, .cls-157 {
        fill-opacity: 0.75;
      }

      .cls-130 {
        fill: url(#Transparent_208_);
      }

      .cls-132 {
        fill: url(#Transparent_209_);
      }

      .cls-134 {
        fill: url(#Transparent_210_);
      }

      .cls-136 {
        fill: url(#Transparent_211_);
      }

      .cls-138 {
        fill: url(#Transparent_212_);
      }

      .cls-140 {
        fill: url(#Transparent_213_);
      }

      .cls-142 {
        fill: url(#Transparent_214_);
      }

      .cls-143, .cls-145 {
        fill: #f9c28c;
      }

      .cls-144 {
        fill: url(#Transparent_215_);
      }

      .cls-146 {
        fill: url(#Transparent_216_);
      }

      .cls-147, .cls-151 {
        fill: #99cdcd;
      }

      .cls-148 {
        fill: url(#Transparent_217_);
      }

      .cls-149 {
        fill: #719898;
      }

      .cls-150 {
        fill: url(#Transparent_218_);
      }

      .cls-152 {
        fill: url(#Transparent_219_);
      }

      .cls-154 {
        fill: url(#Transparent_220_);
      }

      .cls-156 {
        fill: url(#Transparent_221_);
      }

      .cls-158, .cls-159, .cls-160 {
        font-size: 72px;
        font-family: NowAlt-Bold, Now Alt;
      }

      .cls-158, .cls-161 {
        letter-spacing: 0.03em;
      }

      .cls-159 {
        letter-spacing: 0.03em;
      }

      .cls-160 {
        letter-spacing: -0.03em;
      }
    </style></defs><sodipodi:namedview
   id="namedview37"
   pagecolor="#505050"
   bordercolor="#eeeeee"
   borderopacity="1"
   inkscape:showpageshadow="0"
   inkscape:pageopacity="0"
   inkscape:pagecheckerboard="0"
   inkscape:deskcolor="#505050"
   showgrid="false"
   inkscape:zoom="3.4766084"
   inkscape:cx="66.731703"
   inkscape:cy="62.70479"
   inkscape:window-width="1884"
   inkscape:window-height="1052"
   inkscape:window-x="36"
   inkscape:window-y="0"
   inkscape:window-maximized="1"
   inkscape:current-layer="svg35" />
    
    <g
   id="Layer2"
   transform="matrix(0.99346405,0,0,0.99346405,8.5751636,8.5751636)">
            <path
   d="m 164.5,21.5 c 0,-5.519 -4.481,-10 -10,-10 h -133 c -5.519,0 -10,4.481 -10,10 v 133 c 0,5.519 4.481,10 10,10 h 133 c 5.519,0 10,-4.481 10,-10 z"
   style="fill:#9abeff"
   id="path2" />
        </g><g
   id="g4432"
   transform="matrix(0.99346405,0,0,0.99346097,0.62695474,0.524646)">
            <path
   d="M 145.831,98.525 H 46.169 v 45.153 h 99.662 z M 60.26,124.632 h -6.921 v 11.663 h 6.921 z m 66.391,0 h -6.921 v 11.663 h 6.921 z m -54.471,0 h -6.921 v 11.663 h 6.921 z m 66.39,0 h -6.921 v 11.663 h 6.921 z M 60.26,105.535 h -6.921 v 11.663 h 6.921 z m 66.391,0 h -6.921 v 11.663 h 6.921 z m -54.471,0 h -6.921 v 11.663 h 6.921 z m 66.39,0 h -6.921 v 11.663 h 6.921 z"
   style="fill:#f9de81"
   id="path4430" />
        </g><g
   id="flag"
   transform="matrix(0.99346405,0,0,0.99346097,0.62695474,0.524646)"
   style="fill:#ff837d;fill-opacity:1">
            <path
   d="m 112.59,51.093 c 0,0 -6.44,0.729 -8.392,-1.224 C 102.245,47.917 96,48.674 96,48.674 v 9.34 c 0,0 5.995,-0.727 7.87,1.148 1.874,1.874 8.72,1.271 8.72,1.271 z"
   style="fill:#ff837d;fill-opacity:1"
   id="path10" />
        </g><g
   id="roof"
   transform="matrix(0.99346405,0,0,0.99346097,0.62695474,0.524646)"
   style="fill:#f58f8a;fill-opacity:1">
            <rect
   x="46.168999"
   y="84.130997"
   width="99.663002"
   height="14.394"
   style="fill:#f58f8a;fill-opacity:1"
   id="rect13" />
        </g><g
   id="hall"
   transform="matrix(0.99346405,0,0,0.99346097,0.62695474,0.524646)">
            <path
   d="M 79.523,79.473 93.219,65.776 h 5.618 l 13.753,13.753 v 64.149 H 79.523 Z"
   style="fill:#f5d66c"
   id="path16" />
        </g><g
   id="clock"
   transform="matrix(1.1299362,0,0,1.1299373,-14.660318,-14.902335)">
            <circle
   cx="97.933998"
   cy="102.429"
   r="10.394"
   style="fill:#fdf5d9"
   id="circle19" />
        </g><g
   id="pointer_2"
   transform="matrix(1.0153004,0,0,0.99346097,-1.6317627,0.524646)">
            <path
   d="m 103.448,100.793 c 0,-1.253 -0.994,-2.268 -2.219,-2.268 -1.539,0 -3.578,0 -5.117,0 -1.225,0 -2.219,1.015 -2.219,2.268 0,10e-4 0,0.002 0,0.003 0,1.253 0.994,2.268 2.219,2.268 1.539,0 3.578,0 5.117,0 1.225,0 2.219,-1.015 2.219,-2.268 0,-0.001 0,-0.002 0,-0.003 z"
   style="fill:#d3b69a"
   id="path22" />
        </g><g
   id="pointer_1"
   transform="matrix(0,-0.98385924,0.99346405,0,-4.1361366,195.29224)">
            <path
   d="m 103.448,100.793 c 0,-1.253 -1.026,-2.268 -2.29,-2.268 -1.506,0 -3.469,0 -4.975,0 -1.264,0 -2.29,1.015 -2.29,2.268 0,10e-4 0,0.002 0,0.003 0,1.253 1.026,2.268 2.29,2.268 1.506,0 3.469,0 4.975,0 1.264,0 2.29,-1.015 2.29,-2.268 0,-0.001 0,-0.002 0,-0.003 z"
   style="fill:#d3b69a"
   id="path25" />
        </g><g
   id="door"
   transform="matrix(0.9994447,0,0,0.99346097,0.02680072,0.524646)">
            <path
   d="m 102.997,126.526 c 0,-1.846 -0.729,-3.616 -2.026,-4.921 -1.297,-1.305 -3.056,-2.038 -4.891,-2.038 -0.036,0 -0.073,0 -0.109,0 -1.834,0 -3.594,0.733 -4.891,2.038 -1.297,1.305 -2.026,3.075 -2.026,4.921 0,7.122 0,17.152 0,17.152 h 13.943 z"
   style="fill:#d3b69a"
   id="path28" />
        </g><g
   id="roof1"
   serif:id="roof"
   transform="matrix(0.99346405,0,0,0.99346097,0.47739628,0.524646)"
   style="fill:#ff837d;fill-opacity:1">
            <path
   d="m 96.171,63.005 0.006,-0.006 21.301,21.313 v 6.543 L 96.171,69.548 74.823,90.897 V 84.354 L 96.124,62.957 Z"
   style="fill:#ff837d;fill-opacity:1"
   id="path31"
   sodipodi:nodetypes="ccccccccc" />
        <path
   d="m 96.171,63.005 0.006,-0.006 21.301,21.313 v 6.543 L 96.171,69.548 74.823,90.897 V 84.354 L 96.124,62.957 Z"
   style="fill:#ff837d;fill-opacity:1"
   id="path4497"
   sodipodi:nodetypes="ccccccccc" /><path
   d="m 96.171,63.005 0.006,-0.006 21.301,21.313 v 6.543 L 96.171,69.548 74.823,90.897 V 84.354 L 96.124,62.957 Z"
   style="fill:#ff837d;fill-opacity:1"
   id="path4499"
   sodipodi:nodetypes="ccccccccc" /></g>
<g
   transform="translate(8,-203.52542)"
   id="g222">
        <g
   id="g220">
            <path
   d="m 164.5,21.5 c 0,-5.519 -4.481,-10 -10,-10 h -133 c -5.519,0 -10,4.481 -10,10 v 133 c 0,5.519 4.481,10 10,10 h 133 c 5.519,0 10,-4.481 10,-10 z"
   style="fill:#9abeff"
   id="path218" />
        </g>
    </g><g
   id="g260"
   transform="matrix(1,0,0,0.762216,-0.0700474,-177.10662)">
        <g
   id="g226"
   transform="matrix(1,0,0,1.31196,0.0700474,-45.1562)">
            <path
   d="M 145.831,98.525 H 46.169 v 45.153 h 99.662 z M 60.26,124.632 h -6.921 v 11.663 h 6.921 z m 66.391,0 h -6.921 v 11.663 h 6.921 z m -54.471,0 h -6.921 v 11.663 h 6.921 z m 66.39,0 h -6.921 v 11.663 h 6.921 z M 60.26,105.535 h -6.921 v 11.663 h 6.921 z m 66.391,0 h -6.921 v 11.663 h 6.921 z m -54.471,0 h -6.921 v 11.663 h 6.921 z m 66.39,0 h -6.921 v 11.663 h 6.921 z"
   style="fill:#f9de81"
   id="path224" />
        </g>
        <g
   id="g230"
   transform="matrix(1,0,0,1.31196,0.0700474,-45.1562)">
            <path
   d="m 112.59,51.093 c 0,0 -6.44,0.729 -8.392,-1.224 C 102.245,47.917 96,48.674 96,48.674 v 9.34 c 0,0 5.995,-0.727 7.87,1.148 1.874,1.874 8.72,1.271 8.72,1.271 z"
   style="fill:#dc505e"
   id="path228" />
        </g>
        <g
   id="g234"
   transform="matrix(1,0,0,1.31196,0.0700474,-45.1562)">
            <rect
   x="46.168999"
   y="84.130997"
   width="99.663002"
   height="14.394"
   style="fill:#e85e5c"
   id="rect232" />
        </g>
        <g
   id="g238"
   transform="matrix(1,0,0,1.31196,0.0700474,-45.1562)">
            <path
   d="M 79.523,79.473 93.219,65.776 h 5.618 l 13.753,13.753 v 64.149 H 79.523 Z"
   style="fill:#f5d66c"
   id="path236" />
        </g>
        <g
   id="g242"
   transform="matrix(1.13737,0,0,1.49219,-15.3178,-65.529)">
            <circle
   cx="97.933998"
   cy="102.429"
   r="10.394"
   style="fill:#fdf5d9"
   id="circle240" />
        </g>
        <g
   id="g246"
   transform="matrix(1.02198,0,0,1.31196,-2.20353,-45.1562)">
            <path
   d="m 103.448,100.793 c 0,-1.253 -0.994,-2.268 -2.219,-2.268 -1.539,0 -3.578,0 -5.117,0 -1.225,0 -2.219,1.015 -2.219,2.268 0,10e-4 0,0.002 0,0.003 0,1.253 0.994,2.268 2.219,2.268 1.539,0 3.578,0 5.117,0 1.225,0 2.219,-1.015 2.219,-2.268 0,-0.001 0,-0.002 0,-0.003 z"
   style="fill:#d3b69a"
   id="path244" />
        </g>
        <g
   id="g250"
   transform="matrix(0,-1.29928,1,0,-4.72438,212.053)">
            <path
   d="m 103.448,100.793 c 0,-1.253 -1.026,-2.268 -2.29,-2.268 -1.506,0 -3.469,0 -4.975,0 -1.264,0 -2.29,1.015 -2.29,2.268 0,10e-4 0,0.002 0,0.003 0,1.253 1.026,2.268 2.29,2.268 1.506,0 3.469,0 4.975,0 1.264,0 2.29,-1.015 2.29,-2.268 0,-0.001 0,-0.002 0,-0.003 z"
   style="fill:#d3b69a"
   id="path248" />
        </g>
        <g
   id="g254"
   transform="matrix(1.00602,0,0,1.31196,-0.534055,-45.1562)">
            <path
   d="m 102.997,126.526 c 0,-1.846 -0.729,-3.616 -2.026,-4.921 -1.297,-1.305 -3.056,-2.038 -4.891,-2.038 -0.036,0 -0.073,0 -0.109,0 -1.834,0 -3.594,0.733 -4.891,2.038 -1.297,1.305 -2.026,3.075 -2.026,4.921 0,7.122 0,17.152 0,17.152 h 13.943 z"
   style="fill:#d3b69a"
   id="path252" />
        </g>
        <g
   id="g258"
   serif:id="roof"
   transform="matrix(1,0,0,1.31196,-0.080495,-45.1562)">
            <path
   d="m 96.171,63.005 0.006,-0.006 3.272,3.272 -0.006,0.006 18.035,18.035 v 6.543 L 96.171,69.548 74.823,90.897 V 84.354 L 92.9,66.277 92.852,66.229 96.124,62.957 Z"
   style="fill:#dc505e"
   id="path256" />
        </g>
    </g></svg>

<?xml version="1.0" encoding="UTF-8" standalone="no"?>
<!DOCTYPE svg PUBLIC "-//W3C//DTD SVG 1.1//EN" "http://www.w3.org/Graphics/SVG/1.1/DTD/svg11.dtd">
<svg width="100%" height="100%" viewBox="0 0 192 192" version="1.1" xmlns="http://www.w3.org/2000/svg" xmlns:xlink="http://www.w3.org/1999/xlink" xml:space="preserve" xmlns:serif="http://www.serif.com/" style="fill-rule:evenodd;clip-rule:evenodd;stroke-linejoin:round;stroke-miterlimit:2;">
    <g transform="matrix(1,0,0,1,8,8)">
        <g id="Layer2">
            <path d="M164.5,21.5C164.5,15.981 160.019,11.5 154.5,11.5L21.5,11.5C15.981,11.5 11.5,15.981 11.5,21.5L11.5,154.5C11.5,160.019 15.981,164.5 21.5,164.5L154.5,164.5C160.019,164.5 164.5,160.019 164.5,154.5L164.5,21.5Z" style="fill:rgb(154,190,255);"/>
        </g>
    </g>
    <g id="Layer3" transform="matrix(1,0,0,0.762216,-0.0700474,34.4188)">
        <g id="body" transform="matrix(1,0,0,1.31196,0.0700474,-45.1562)">
            <path d="M145.831,98.525L46.169,98.525L46.169,143.678L145.831,143.678L145.831,98.525ZM60.26,124.632L53.339,124.632L53.339,136.295L60.26,136.295L60.26,124.632ZM126.651,124.632L119.73,124.632L119.73,136.295L126.651,136.295L126.651,124.632ZM72.18,124.632L65.259,124.632L65.259,136.295L72.18,136.295L72.18,124.632ZM138.57,124.632L131.649,124.632L131.649,136.295L138.57,136.295L138.57,124.632ZM60.26,105.535L53.339,105.535L53.339,117.198L60.26,117.198L60.26,105.535ZM126.651,105.535L119.73,105.535L119.73,117.198L126.651,117.198L126.651,105.535ZM72.18,105.535L65.259,105.535L65.259,117.198L72.18,117.198L72.18,105.535ZM138.57,105.535L131.649,105.535L131.649,117.198L138.57,117.198L138.57,105.535Z" style="fill:rgb(249,222,129);"/>
        </g>
        <g id="flag" transform="matrix(1,0,0,1.31196,0.0700474,-45.1562)">
            <path d="M112.59,51.093C112.59,51.093 106.15,51.822 104.198,49.869C102.245,47.917 96,48.674 96,48.674L96,58.014C96,58.014 101.995,57.287 103.87,59.162C105.744,61.036 112.59,60.433 112.59,60.433L112.59,51.093Z" style="fill:rgb(220,80,94);"/>
        </g>
        <g id="roof" transform="matrix(1,0,0,1.31196,0.0700474,-45.1562)">
            <rect x="46.169" y="84.131" width="99.663" height="14.394" style="fill:rgb(232,94,92);"/>
        </g>
        <g id="hall" transform="matrix(1,0,0,1.31196,0.0700474,-45.1562)">
            <path d="M79.523,79.473L93.219,65.776L98.837,65.776L112.59,79.529L112.59,143.678L79.523,143.678L79.523,79.473Z" style="fill:rgb(245,214,108);"/>
        </g>
        <g id="clock" transform="matrix(1.13737,0,0,1.49219,-15.3178,-65.529)">
            <circle cx="97.934" cy="102.429" r="10.394" style="fill:rgb(253,245,217);"/>
        </g>
        <g id="pointer_2" transform="matrix(1.02198,0,0,1.31196,-2.20353,-45.1562)">
            <path d="M103.448,100.793C103.448,99.54 102.454,98.525 101.229,98.525C99.69,98.525 97.651,98.525 96.112,98.525C94.887,98.525 93.893,99.54 93.893,100.793C93.893,100.794 93.893,100.795 93.893,100.796C93.893,102.049 94.887,103.064 96.112,103.064C97.651,103.064 99.69,103.064 101.229,103.064C102.454,103.064 103.448,102.049 103.448,100.796C103.448,100.795 103.448,100.794 103.448,100.793Z" style="fill:rgb(211,182,154);"/>
        </g>
        <g id="pointer_1" transform="matrix(6.06402e-17,-1.29928,1,8.03346e-17,-4.72438,212.053)">
            <path d="M103.448,100.793C103.448,99.54 102.422,98.525 101.158,98.525C99.652,98.525 97.689,98.525 96.183,98.525C94.919,98.525 93.893,99.54 93.893,100.793C93.893,100.794 93.893,100.795 93.893,100.796C93.893,102.049 94.919,103.064 96.183,103.064C97.689,103.064 99.652,103.064 101.158,103.064C102.422,103.064 103.448,102.049 103.448,100.796C103.448,100.795 103.448,100.794 103.448,100.793Z" style="fill:rgb(211,182,154);"/>
        </g>
        <g id="door" transform="matrix(1.00602,0,0,1.31196,-0.534055,-45.1562)">
            <path d="M102.997,126.526C102.997,124.68 102.268,122.91 100.971,121.605C99.674,120.3 97.915,119.567 96.08,119.567C96.044,119.567 96.007,119.567 95.971,119.567C94.137,119.567 92.377,120.3 91.08,121.605C89.783,122.91 89.054,124.68 89.054,126.526C89.054,133.648 89.054,143.678 89.054,143.678L102.997,143.678L102.997,126.526Z" style="fill:rgb(211,182,154);"/>
        </g>
        <g id="roof1" serif:id="roof" transform="matrix(1,0,0,1.31196,-0.080495,-45.1562)">
            <path d="M96.171,63.005L96.177,62.999L99.449,66.271L99.443,66.277L117.478,84.312L117.478,90.855L96.171,69.548L74.823,90.897L74.823,84.354L92.9,66.277L92.852,66.229L96.124,62.957L96.171,63.005Z" style="fill:rgb(220,80,94);"/>
        </g>
    </g>
</svg>
